X: 12
T: If We Hadn't Any Women In The World
R: barndance
M: 4/4
L: 1/8
K: Dmaj
|: F>G |A>BA>F D>EF>D | B,2 G>B, A,2 D>E | F2 A>F B>FA>F |B,2 E2 E2 F>G |
A>BA>F D>EF>D | B,2 G>B, A,2 D>E | F2 A>F E>DE>F | D2 D2 D2 :|
|: d>c |B2- B>c d2 c2 | B2 A2 A2 F>G | F2 A>F B>FA>F | B,2 E2 E2 F>G |
A>BA>F D>EF>D | B,2 G>B, A,2 D>E | F2 A>F E>DE>F | D2 D2 D2 :|


Tune 1376	Setting 14741

